X: 11621
T: Eight Men Of Moidart
R: polka
M: 2/4
K: Dmajor
|:c/B/|Aa ae|c2 Ae/d/|ce A/>B/c/>e/|
cB Bc/B/|Aa ae|c2 Ae/d/|ce Be/d/|cA A:|
e|cB/A/ eA|fA eA|cB/A/ eA|f/>e/d/>c Be/d/|
cB/A/ eA|fA e>d|ce Be/d/|cA Ae|
cB/A/ eA|fA eA|c/>B/A/>c/ ea/e/|
fB Be|a/>g/f/>e/ ae|c2 Ae/d/|ce Be/d/|cA A||

